assets/logos/INK-logo-primary.svg

<svg width="239" height="130" viewBox="0 0 239 130" fill="none" xmlns="http://www.w3.org/2000/svg">
<g clip-path="url(#clip0)">
<path fill-rule="evenodd" clip-rule="evenodd" d="M0 0V109.1H40.3V0H0ZM29.8 97.3H10.6V11.8H29.8V97.3Z" fill="#2F2F2E"/>
<path fill-rule="evenodd" clip-rule="evenodd" d="M10.6001 11.7998H29.8001V97.2998H10.6001V11.7998Z" fill="white"/>
<path fill-rule="evenodd" clip-rule="evenodd" d="M147.5 0V109.2H239V0H147.5ZM231.3 97.5H209L178.5 62.2V97.5H159.1V11.7H178.5V44.3L206.4 11.7H229L229.4 12.9L193.7 53.2L231.9 96.2L231.3 97.5Z" fill="#2F2F2E"/>
<path fill-rule="evenodd" clip-rule="evenodd" d="M231.7 96.3002L231.3 97.5002H208.9L178.4 62.2002V97.5002H159V11.7002H178.4V44.3002L206.3 11.7002H228.9L229.2 12.9002L193.5 53.2002L231.7 96.3002Z" fill="white"/>
<path fill-rule="evenodd" clip-rule="evenodd" d="M48.2 0V109.2H139.6V0H48.2ZM128.6 97.9L127.6 98.4L78.5 53.7V97.6H59.2V11.5L60.2999 11.1L109.5 55.4V12.2H128.6V97.9Z" fill="#2F2F2E"/>
<path fill-rule="evenodd" clip-rule="evenodd" d="M128.6 12.2001V97.9001L127.7 98.4001L78.5 53.7001V97.7001H59.2V11.5001L60.2999 11.1001L109.5 55.4001V12.2001H128.6Z" fill="white"/>
<path d="M7.0999 117.4C7.8999 117.4 8.5999 117.5 9.2999 117.8C9.9999 118.1 10.6999 118.5 11.1999 119L11.2999 119.1V119.2V119.3C11.2999 119.3 11.2999 119.4 11.1999 119.4L10.1999 120.5L10.0999 120.6H9.9999H9.8999C9.8999 120.6 9.7999 120.6 9.7999 120.5C9.0999 119.8 8.0999 119.5 7.1999 119.5C6.1999 119.5 5.1999 120 4.4999 120.7C3.7999 121.5 3.3999 122.5 3.3999 123.5C3.3999 124.5 3.7999 125.6 4.4999 126.3C5.1999 127.1 6.1999 127.5 7.1999 127.5C8.1999 127.5 9.0999 127.1 9.7999 126.5C9.8999 126.4 9.8999 126.4 9.9999 126.4C10.0999 126.4 10.1999 126.4 10.1999 126.5L11.2999 127.6L11.3999 127.7V127.8V127.9C11.3999 127.9 11.3999 128 11.2999 128C10.1999 129.1 8.6999 129.7 7.0999 129.7C5.4999 129.7 3.8999 129 2.6999 127.9C1.4999 126.7 0.899902 125.1 0.899902 123.5C0.899902 121.9 1.4999 120.2 2.6999 119.1C3.7999 118 5.3999 117.4 7.0999 117.4V117.4Z" fill="#2F2F2E"/>
<path d="M22.9999 117.4C24.1999 117.4 25.3999 117.8 26.3999 118.4C27.3999 119.1 28.1999 120.1 28.6999 121.2C29.1999 122.3 29.2999 123.6 29.0999 124.8C28.8999 126 28.2999 127.1 27.3999 128C26.4999 128.9 25.3999 129.5 24.2999 129.7C23.0999 129.9 21.8999 129.8 20.6999 129.4C19.4999 129 18.5999 128.1 17.8999 127.1C17.1999 126.1 16.8999 124.9 16.8999 123.6C16.8999 122.8 17.0999 122 17.3999 121.2C17.6999 120.4 18.1999 119.7 18.6999 119.2C19.2999 118.6 19.8999 118.2 20.6999 117.8C21.3999 117.5 22.1999 117.4 22.9999 117.4V117.4ZM22.9999 127.7C23.7999 127.7 24.4999 127.5 25.1999 127C25.7999 126.6 26.3999 125.9 26.6999 125.2C26.9999 124.5 27.0999 123.7 26.8999 122.9C26.6999 122.1 26.3999 121.4 25.7999 120.8C25.1999 120.2 24.4999 119.9 23.7999 119.7C22.9999 119.5 22.1999 119.6 21.4999 119.9C20.7999 120.2 20.1999 120.7 19.6999 121.4C19.2999 122.1 18.9999 122.8 18.9999 123.6C18.9999 124.7 19.3999 125.7 20.1999 126.4C20.8999 127.2 21.8999 127.7 22.9999 127.7V127.7Z" fill="#2F2F2E"/>
<path d="M36.8999 117.6C36.8999 117.5 36.8999 117.5 36.9999 117.4C37.0999 117.4 37.0999 117.3 37.1999 117.3H37.4999H37.6999C37.7999 117.3 37.7999 117.4 37.7999 117.4L41.5999 125.6L45.3999 117.4C45.3999 117.3 45.4999 117.3 45.4999 117.3H45.6999H45.9999C46.0999 117.3 46.0999 117.3 46.1999 117.4C46.2999 117.4 46.2999 117.5 46.2999 117.6L48.2999 129.3V129.5C48.2999 129.6 48.2999 129.6 48.1999 129.6L48.0999 129.7H47.9999H46.3999C46.2999 129.7 46.2999 129.7 46.1999 129.6C46.0999 129.6 46.0999 129.5 46.0999 129.4L45.0999 122.8H44.9999L41.9999 129.7C41.9999 129.8 41.8999 129.8 41.8999 129.8C41.7999 129.8 41.7999 129.9 41.6999 129.8H41.3999C41.2999 129.8 41.2999 129.8 41.1999 129.8C41.0999 129.8 41.0999 129.7 41.0999 129.7L38.0999 122.8H37.9999L36.9999 129.4C36.9999 129.5 36.8999 129.5 36.8999 129.6C36.7999 129.6 36.7999 129.7 36.6999 129.7H35.1999H35.0999L34.9999 129.6L34.8999 129.5C34.8999 129.5 34.8999 129.4 34.8999 129.3L36.8999 117.6Z" fill="#2F2F2E"/>
<path d="M56.0999 117.6C56.0999 117.5 56.1 117.5 56.2 117.4C56.3 117.4 56.3 117.3 56.4 117.3H56.7H56.9C57 117.3 57 117.4 57 117.4L60.7999 125.6L64.5999 117.4C64.5999 117.3 64.6999 117.3 64.6999 117.3H64.9H65.1999C65.2999 117.3 65.3 117.3 65.4 117.4C65.5 117.4 65.5 117.5 65.5 117.6L67.5 129.3V129.4C67.5 129.5 67.5 129.5 67.4 129.5L67.3 129.6H67.1999H65.5999C65.4999 129.6 65.5 129.6 65.4 129.5C65.3 129.5 65.3 129.4 65.3 129.3L64.3 122.7H64.1999L61.2 129.6C61.2 129.7 61.0999 129.7 61.0999 129.7C60.9999 129.7 61 129.8 60.9 129.7H60.5999C60.4999 129.7 60.5 129.7 60.4 129.7C60.3 129.7 60.2999 129.6 60.2999 129.6L57.2999 122.7L56.2999 129.3C56.2999 129.4 56.2 129.4 56.2 129.5C56.1 129.5 56.1 129.6 56 129.6H54.5H54.4L54.2999 129.5L54.2 129.4V129.3L56.0999 117.6Z" fill="#2F2F2E"/>
<path d="M73.8998 117.9C73.8998 117.8 73.8998 117.7 73.9998 117.7C74.0998 117.6 74.0998 117.6 74.1998 117.6H75.7998C75.8998 117.6 75.9998 117.6 75.9998 117.7C76.0998 117.8 76.0998 117.8 76.0998 117.9V125C76.0998 125.3 76.0998 125.7 76.2998 126C76.3998 126.3 76.5998 126.6 76.7998 126.9C76.9998 127.1 77.2998 127.3 77.5998 127.5C77.8998 127.6 78.1998 127.7 78.5998 127.7C78.9998 127.7 79.2998 127.6 79.5998 127.5C79.8998 127.4 80.1998 127.2 80.3998 126.9C80.5998 126.7 80.7998 126.4 80.8998 126C80.9998 125.7 81.0998 125.3 81.0998 125V117.9C81.0998 117.8 81.0998 117.7 81.1998 117.7C81.2998 117.6 81.2998 117.6 81.3998 117.6H83.0998C83.1998 117.6 83.2998 117.6 83.2998 117.7C83.3998 117.8 83.3998 117.8 83.3998 117.9V125.2C83.3998 126.5 82.8998 127.7 81.9998 128.6C81.0998 129.5 79.8998 130 78.5998 130C77.2998 130 76.0998 129.5 75.1998 128.6C74.2998 127.7 73.7998 126.5 73.7998 125.2L73.8998 117.9Z" fill="#2F2F2E"/>
<path d="M90.5999 117.7V117.6C90.5999 117.6 90.5999 117.5 90.6999 117.5L90.7999 117.4H90.8999H91.2999L98.3999 125.1V117.9C98.3999 117.8 98.3999 117.7 98.4999 117.7C98.5999 117.6 98.5999 117.6 98.6999 117.6H100.3C100.4 117.6 100.5 117.6 100.5 117.7C100.6 117.8 100.6 117.8 100.6 117.9V129.6C100.6 129.7 100.6 129.8 100.5 129.8C100.4 129.9 100.4 129.9 100.3 129.9H99.9999L92.7999 121.9V129.4C92.7999 129.5 92.7999 129.6 92.6999 129.6C92.5999 129.7 92.5999 129.7 92.4999 129.7H90.9999C90.8999 129.7 90.7999 129.7 90.7999 129.6C90.6999 129.5 90.6999 129.5 90.6999 129.4V117.7H90.5999Z" fill="#2F2F2E"/>
<path d="M108.2 117.9C108.2 117.8 108.2 117.7 108.3 117.7C108.4 117.6 108.4 117.6 108.5 117.6H110.1C110.2 117.6 110.3 117.6 110.3 117.7C110.4 117.8 110.4 117.8 110.4 117.9V129.5C110.4 129.6 110.4 129.7 110.3 129.7C110.2 129.8 110.2 129.8 110.1 129.8H108.5C108.4 129.8 108.3 129.8 108.3 129.7C108.2 129.6 108.2 129.6 108.2 129.5V117.9Z" fill="#2F2F2E"/>
<path d="M123.1 117.4C124.6 117.4 126.1 117.9 127.2 119L127.3 119.1V119.2V119.3C127.3 119.3 127.3 119.4 127.2 119.4L126.2 120.5L126.1 120.6H126H125.9C125.9 120.6 125.8 120.6 125.8 120.5C125.1 119.8 124.1 119.5 123.2 119.5C122.2 119.5 121.2 120 120.5 120.7C119.8 121.5 119.4 122.5 119.4 123.5C119.4 124.5 119.8 125.6 120.5 126.3C121.2 127.1 122.2 127.5 123.2 127.5C124.2 127.5 125.1 127.1 125.8 126.5C125.9 126.4 125.9 126.4 126 126.4C126.1 126.4 126.2 126.4 126.2 126.5L127.3 127.6L127.4 127.7V127.8V127.9C127.4 127.9 127.4 128 127.3 128C126.2 129.1 124.7 129.7 123.1 129.7C121.5 129.7 119.9 129 118.7 127.9C117.5 126.7 116.9 125.1 116.9 123.5C116.9 121.9 117.5 120.2 118.7 119.1C119.8 118 121.4 117.4 123.1 117.4V117.4Z" fill="#2F2F2E"/>
<path d="M131.3 129.3L136.6 117.6C136.6 117.5 136.7 117.5 136.7 117.5C136.8 117.5 136.8 117.4 136.9 117.4H137.1H137.3C137.4 117.4 137.4 117.5 137.4 117.5L142.7 129.2V129.4V129.6L142.6 129.7C142.6 129.7 142.5 129.7 142.4 129.7H140.9C140.8 129.7 140.7 129.7 140.6 129.6C140.5 129.5 140.4 129.4 140.4 129.3L139.6 127.4H134.5L133.7 129.3C133.7 129.4 133.6 129.5 133.5 129.6C133.4 129.7 133.3 129.7 133.2 129.7H131.7C131.6 129.7 131.6 129.7 131.5 129.7C131.4 129.7 131.4 129.6 131.4 129.6C131.4 129.6 131.4 129.5 131.4 129.4C131.3 129.4 131.3 129.4 131.3 129.3ZM138.7 125.6L137 121.8L135.3 125.6H138.7Z" fill="#2F2F2E"/>
<path d="M148.6 119.6H146H145.9C145.9 119.6 145.8 119.6 145.8 119.5L145.7 119.4V119.3V117.9C145.7 117.8 145.7 117.7 145.8 117.7C145.9 117.6 145.9 117.6 146 117.6H153.5C153.6 117.6 153.7 117.6 153.7 117.7C153.8 117.8 153.8 117.8 153.8 117.9V119.3V119.4C153.8 119.4 153.8 119.5 153.7 119.5L153.6 119.6H153.5H150.9V129.4C150.9 129.5 150.9 129.6 150.8 129.6C150.7 129.7 150.7 129.7 150.6 129.7H149C148.9 129.7 148.8 129.7 148.8 129.6C148.7 129.5 148.7 129.5 148.7 129.4L148.6 119.6Z" fill="#2F2F2E"/>
<path d="M159.9 117.9C159.9 117.8 159.9 117.7 160 117.7C160.1 117.6 160.1 117.6 160.2 117.6H161.8C161.9 117.6 162 117.6 162 117.7C162.1 117.8 162.1 117.8 162.1 117.9V129.5C162.1 129.6 162.1 129.7 162 129.7C161.9 129.8 161.9 129.8 161.8 129.8H160.2C160.1 129.8 160 129.8 160 129.7C159.9 129.6 159.9 129.6 159.9 129.5V117.9Z" fill="#2F2F2E"/>
<path d="M174.8 117.4C176 117.4 177.2 117.8 178.2 118.4C179.2 119.1 180 120.1 180.5 121.2C181 122.3 181.1 123.6 180.9 124.8C180.7 126 180.1 127.1 179.2 128C178.3 128.9 177.2 129.5 176.1 129.7C175 129.9 173.7 129.8 172.5 129.4C171.4 128.9 170.4 128.1 169.7 127.1C169 126.1 168.7 124.9 168.7 123.6C168.7 122.8 168.9 122 169.2 121.2C169.5 120.4 170 119.7 170.5 119.2C171.1 118.6 171.7 118.2 172.5 117.8C173.2 117.5 174 117.4 174.8 117.4V117.4ZM174.8 127.7C175.6 127.7 176.3 127.5 177 127C177.6 126.6 178.2 125.9 178.5 125.2C178.8 124.5 178.9 123.7 178.7 122.9C178.5 122.1 178.2 121.4 177.6 120.8C177 120.2 176.3 119.9 175.6 119.7C174.8 119.5 174 119.6 173.3 119.9C172.6 120.2 172 120.7 171.5 121.4C171.1 122.1 170.8 122.8 170.8 123.6C170.8 124.7 171.2 125.7 172 126.4C172.8 127.2 173.8 127.7 174.8 127.7V127.7Z" fill="#2F2F2E"/>
<path d="M187.3 117.7C187.3 117.6 187.3 117.5 187.4 117.5C187.5 117.4 187.5 117.4 187.6 117.4H188L195.1 125.1V117.9C195.1 117.8 195.1 117.7 195.2 117.7C195.3 117.6 195.3 117.6 195.4 117.6H197C197.1 117.6 197.2 117.6 197.2 117.7C197.3 117.8 197.3 117.8 197.3 117.9V129.6C197.3 129.7 197.3 129.8 197.2 129.8C197.1 129.9 197.1 129.9 197 129.9H196.6L189.4 121.9V129.4C189.4 129.5 189.4 129.6 189.3 129.6C189.2 129.7 189.2 129.7 189.1 129.7H187.5C187.4 129.7 187.3 129.7 187.3 129.6C187.2 129.5 187.2 129.5 187.2 129.4V117.7H187.3Z" fill="#2F2F2E"/>
<path d="M204.1 128.1L204.7 127C204.7 126.9 204.8 126.9 204.8 126.9C204.8 126.9 204.9 126.8 205 126.8H205.2C205.3 126.8 205.3 126.8 205.4 126.9C205.5 127 206.9 128 208 128C208.2 128 208.4 128 208.6 127.9C208.8 127.8 208.9 127.7 209.1 127.6C209.3 127.5 209.4 127.3 209.5 127.1C209.6 126.9 209.6 126.7 209.7 126.5C209.7 125.6 209 125 207.5 124.4C205.9 123.7 204.3 122.7 204.3 120.6C204.3 119 205.4 117.2 208.1 117.2C209.3 117.2 210.5 117.6 211.5 118.4C211.6 118.5 211.6 118.6 211.7 118.7C211.7 118.8 211.7 118.9 211.6 119L210.9 120C210.8 120.1 210.8 120.2 210.6 120.2C210.5 120.2 210.4 120.2 210.3 120.2C210.2 120.1 208.9 119.2 207.9 119.2C207.5 119.2 207.2 119.3 206.9 119.5C206.6 119.7 206.4 120.1 206.4 120.4C206.4 121.2 207 121.8 208.4 122.4C210.1 123.1 212 124.1 212 126.3C212 128.1 210.5 129.8 208.1 129.8C206.7 129.8 205.4 129.4 204.3 128.4C204 128.4 203.9 128.3 204.1 128.1V128.1Z" fill="#2F2F2E"/>
<path d="M223.6 117.4C224.1 117.4 224.6 117.5 225.1 117.7C225.6 117.9 226 118.2 226.4 118.5C226.4 118.5 226.4 118.5 226.5 118.6V118.7V118.8C226.5 118.8 226.5 118.9 226.4 118.9L225.5 119.9L225.4 120C225.3 120 225.3 120 225.3 119.9C224.9 119.5 224.3 119.3 223.7 119.3C223.1 119.3 222.5 119.6 222 120C221.5 120.5 221.3 121.1 221.3 121.7C221.3 122.3 221.6 123 222 123.4C222.5 123.9 223.1 124.1 223.7 124.1C224.3 124.1 224.8 123.9 225.3 123.5C225.3 123.5 225.4 123.4 225.5 123.4C225.6 123.4 225.6 123.4 225.7 123.5L226.6 124.5C226.6 124.5 226.7 124.6 226.7 124.7C226.7 124.8 226.7 124.8 226.6 124.9C225.8 125.7 224.8 126.1 223.7 126.1C222.6 126.1 221.5 125.6 220.7 124.8C219.9 124 219.5 122.9 219.5 121.8C219.5 120.7 219.9 119.6 220.7 118.8C221.4 117.8 222.5 117.4 223.6 117.4Z" fill="#2F2F2E"/>
<path d="M233.2 117.4C234 117.4 234.9 117.6 235.6 118.1C236.3 118.6 236.8 119.2 237.2 120C237.5 120.8 237.6 121.7 237.4 122.5C237.2 123.3 236.8 124.1 236.2 124.7C235.6 125.3 234.9 125.7 234 125.9C233.2 126.1 232.3 126 231.6 125.7C230.8 125.4 230.2 124.8 229.7 124.1C229.2 123.4 229 122.6 229 121.7C229 121.1 229.1 120.6 229.3 120C229.5 119.5 229.8 119 230.2 118.6C230.6 118.2 231.1 117.9 231.6 117.7C232.1 117.5 232.6 117.4 233.2 117.4V117.4ZM233.2 124.1C233.7 124.1 234.1 124 234.5 123.7C234.9 123.4 235.2 123.1 235.4 122.6C235.6 122.2 235.6 121.7 235.5 121.2C235.4 120.7 235.2 120.3 234.9 120C234.6 119.7 234.2 119.4 233.7 119.3C233.2 119.2 232.8 119.3 232.3 119.4C231.9 119.6 231.5 119.9 231.2 120.3C230.9 120.7 230.8 121.2 230.8 121.6C230.8 122.2 231.1 122.8 231.5 123.3C232 123.8 232.6 124.1 233.2 124.1V124.1Z" fill="#2F2F2E"/>
<path d="M237.3 128.2H219.6C219.5 128.2 219.4 128.3 219.4 128.4V129.6C219.4 129.7 219.5 129.8 219.6 129.8H237.3C237.4 129.8 237.5 129.7 237.5 129.6V128.4C237.5 128.3 237.4 128.2 237.3 128.2Z" fill="#2F2F2E"/>
</g>
<defs>
<clipPath id="clip0">
<rect width="239" height="130" fill="white"/>
</clipPath>
</defs>
</svg>

<svg enable-background="new 0 0 239 130" viewBox="0 0 239 130" xmlns="http://www.w3.org/2000/svg"><path clip-rule="evenodd" d="m0 0v109.1h40.3v-109.1zm29.8 97.3h-19.2v-85.5h19.2z" fill="#2f2f2e" fill-rule="evenodd"/><path clip-rule="evenodd" d="m10.6 11.8h19.2v85.5h-19.2z" fill="#fff" fill-rule="evenodd"/><path clip-rule="evenodd" d="m147.5 0v109.2h91.5v-109.2zm83.8 97.5h-22.3l-30.5-35.3v35.3h-19.4v-85.8h19.4v32.6l27.9-32.6h22.6l.4 1.2-35.7 40.3 38.2 43z" fill="#2f2f2e" fill-rule="evenodd"/><path clip-rule="evenodd" d="m231.7 96.3-.4 1.2h-22.4l-30.5-35.3v35.3h-19.4v-85.8h19.4v32.6l27.9-32.6h22.6l.3 1.2-35.7 40.3z" fill="#fff" fill-rule="evenodd"/><path clip-rule="evenodd" d="m48.2 0v109.2h91.4v-109.2zm80.4 97.9-1 .5-49.1-44.7v43.9h-19.3v-86.1l1.1-.4 49.2 44.3v-43.2h19.1z" fill="#2f2f2e" fill-rule="evenodd"/><path clip-rule="evenodd" d="m128.6 12.2v85.7l-.9.5-49.2-44.7v44h-19.3v-86.2l1.1-.4 49.2 44.3v-43.2z" fill="#fff" fill-rule="evenodd"/><g fill="#2f2f2e"><path d="m7.1 117.4c.8 0 1.5.1 2.2.4s1.4.7 1.9 1.2c0 0 .1.1.1.1v.1.1s0 .1-.1.1l-1 1.1s-.1.1-.1.1h-.1-.1s-.1 0-.1-.1c-.7-.7-1.7-1-2.6-1-1 0-2 .5-2.7 1.2-.7.8-1.1 1.8-1.1 2.8s.4 2.1 1.1 2.8c.7.8 1.7 1.2 2.7 1.2s1.9-.4 2.6-1c.1-.1.1-.1.2-.1s.2 0 .2.1l1.1 1.1s.1.1.1.1v.1.1s0 .1-.1.1c-1.1 1.1-2.6 1.7-4.2 1.7s-3.2-.7-4.4-1.8c-1.2-1.2-1.8-2.8-1.8-4.4s.6-3.3 1.8-4.4c1.1-1.1 2.7-1.7 4.4-1.7z"/><path d="m23 117.4c1.2 0 2.4.4 3.4 1 1 .7 1.8 1.7 2.3 2.8s.6 2.4.4 3.6-.8 2.3-1.7 3.2-2 1.5-3.1 1.7c-1.2.2-2.4.1-3.6-.3s-2.1-1.3-2.8-2.3-1-2.2-1-3.5c0-.8.2-1.6.5-2.4s.8-1.5 1.3-2c.6-.6 1.2-1 2-1.4.7-.3 1.5-.4 2.3-.4zm0 10.3c.8 0 1.5-.2 2.2-.7.6-.4 1.2-1.1 1.5-1.8s.4-1.5.2-2.3-.5-1.5-1.1-2.1-1.3-.9-2-1.1c-.8-.2-1.6-.1-2.3.2s-1.3.8-1.8 1.5c-.4.7-.7 1.4-.7 2.2 0 1.1.4 2.1 1.2 2.8.7.8 1.7 1.3 2.8 1.3z"/><path d="m36.9 117.6c0-.1 0-.1.1-.2.1 0 .1-.1.2-.1h.3.2c.1 0 .1.1.1.1l3.8 8.2 3.8-8.2c0-.1.1-.1.1-.1h.2.3c.1 0 .1 0 .2.1.1 0 .1.1.1.2l2 11.7v.2c0 .1 0 .1-.1.1 0 0-.1.1-.1.1h-.1-1.6c-.1 0-.1 0-.2-.1-.1 0-.1-.1-.1-.2l-1-6.6h-.1l-3 6.9c0 .1-.1.1-.1.1-.1 0-.1.1-.2 0h-.3c-.1 0-.1 0-.2 0s-.1-.1-.1-.1l-3-6.9h-.1l-1 6.6c0 .1-.1.1-.1.2-.1 0-.1.1-.2.1h-1.5-.1s-.1-.1-.1-.1-.1-.1-.1-.1 0-.1 0-.2z"/><path d="m56.1 117.6c0-.1 0-.1.1-.2.1 0 .1-.1.2-.1h.3.2c.1 0 .1.1.1.1l3.8 8.2 3.8-8.2c0-.1.1-.1.1-.1h.2.3c.1 0 .1 0 .2.1.1 0 .1.1.1.2l2 11.7v.1c0 .1 0 .1-.1.1 0 0-.1.1-.1.1h-.1-1.6c-.1 0-.1 0-.2-.1-.1 0-.1-.1-.1-.2l-1-6.6h-.1l-3 6.9c0 .1-.1.1-.1.1-.1 0-.1.1-.2 0h-.3c-.1 0-.1 0-.2 0s-.1-.1-.1-.1l-3-6.9-1 6.6c0 .1-.1.1-.1.2-.1 0-.1.1-.2.1h-1.5-.1s-.1-.1-.1-.1-.1-.1-.1-.1v-.1z"/><path d="m73.9 117.9c0-.1 0-.2.1-.2.1-.1.1-.1.2-.1h1.6c.1 0 .2 0 .2.1.1.1.1.1.1.2v7.1c0 .3 0 .7.2 1 .1.3.3.6.5.9.2.2.5.4.8.6.3.1.6.2 1 .2s.7-.1 1-.2.6-.3.8-.6c.2-.2.4-.5.5-.9.1-.3.2-.7.2-1v-7.1c0-.1 0-.2.1-.2.1-.1.1-.1.2-.1h1.7c.1 0 .2 0 .2.1.1.1.1.1.1.2v7.3c0 1.3-.5 2.5-1.4 3.4s-2.1 1.4-3.4 1.4-2.5-.5-3.4-1.4-1.4-2.1-1.4-3.4z"/><path d="m90.6 117.7v-.1s0-.1.1-.1c0 0 .1-.1.1-.1h.1.4l7.1 7.7v-7.2c0-.1 0-.2.1-.2.1-.1.1-.1.2-.1h1.6c.1 0 .2 0 .2.1.1.1.1.1.1.2v11.7c0 .1 0 .2-.1.2-.1.1-.1.1-.2.1h-.3l-7.2-8v7.5c0 .1 0 .2-.1.2-.1.1-.1.1-.2.1h-1.5c-.1 0-.2 0-.2-.1-.1-.1-.1-.1-.1-.2v-11.7z"/><path d="m108.2 117.9c0-.1 0-.2.1-.2.1-.1.1-.1.2-.1h1.6c.1 0 .2 0 .2.1.1.1.1.1.1.2v11.6c0 .1 0 .2-.1.2-.1.1-.1.1-.2.1h-1.6c-.1 0-.2 0-.2-.1-.1-.1-.1-.1-.1-.2z"/><path d="m123.1 117.4c1.5 0 3 .5 4.1 1.6 0 0 .1.1.1.1v.1.1s0 .1-.1.1l-1 1.1s-.1.1-.1.1h-.1s-.1 0-.1 0-.1 0-.1-.1c-.7-.7-1.7-1-2.6-1-1 0-2 .5-2.7 1.2-.7.8-1.1 1.8-1.1 2.8s.4 2.1 1.1 2.8c.7.8 1.7 1.2 2.7 1.2s1.9-.4 2.6-1c.1-.1.1-.1.2-.1s.2 0 .2.1l1.1 1.1s.1.1.1.1v.1.1s0 .1-.1.1c-1.1 1.1-2.6 1.7-4.2 1.7s-3.2-.7-4.4-1.8c-1.2-1.2-1.8-2.8-1.8-4.4s.6-3.3 1.8-4.4c1.1-1.1 2.7-1.7 4.4-1.7z"/><path d="m131.3 129.3 5.3-11.7c0-.1.1-.1.1-.1.1 0 .1-.1.2-.1h.2.2c.1 0 .1.1.1.1l5.3 11.7v.2.2s-.1.1-.1.1-.1 0-.2 0h-1.5c-.1 0-.2 0-.3-.1s-.2-.2-.2-.3l-.8-1.9h-5.1l-.8 1.9c0 .1-.1.2-.2.3s-.2.1-.3.1h-1.5c-.1 0-.1 0-.2 0s-.1-.1-.1-.1 0-.1 0-.2c-.1 0-.1 0-.1-.1zm7.4-3.7-1.7-3.8-1.7 3.8z"/><path d="m148.6 119.6h-2.6-.1s-.1 0-.1-.1c0 0-.1-.1-.1-.1v-.1-1.4c0-.1 0-.2.1-.2.1-.1.1-.1.2-.1h7.5c.1 0 .2 0 .2.1.1.1.1.1.1.2v1.4.1s0 .1-.1.1c0 0-.1.1-.1.1h-.1-2.6v9.8c0 .1 0 .2-.1.2-.1.1-.1.1-.2.1h-1.6c-.1 0-.2 0-.2-.1-.1-.1-.1-.1-.1-.2z"/><path d="m159.9 117.9c0-.1 0-.2.1-.2.1-.1.1-.1.2-.1h1.6c.1 0 .2 0 .2.1.1.1.1.1.1.2v11.6c0 .1 0 .2-.1.2-.1.1-.1.1-.2.1h-1.6c-.1 0-.2 0-.2-.1-.1-.1-.1-.1-.1-.2z"/><path d="m174.8 117.4c1.2 0 2.4.4 3.4 1 1 .7 1.8 1.7 2.3 2.8s.6 2.4.4 3.6-.8 2.3-1.7 3.2-2 1.5-3.1 1.7-2.4.1-3.6-.3c-1.1-.5-2.1-1.3-2.8-2.3s-1-2.2-1-3.5c0-.8.2-1.6.5-2.4s.8-1.5 1.3-2c.6-.6 1.2-1 2-1.4.7-.3 1.5-.4 2.3-.4zm0 10.3c.8 0 1.5-.2 2.2-.7.6-.4 1.2-1.1 1.5-1.8s.4-1.5.2-2.3-.5-1.5-1.1-2.1-1.3-.9-2-1.1c-.8-.2-1.6-.1-2.3.2s-1.3.8-1.8 1.5c-.4.7-.7 1.4-.7 2.2 0 1.1.4 2.1 1.2 2.8.8.8 1.8 1.3 2.8 1.3z"/><path d="m187.3 117.7c0-.1 0-.2.1-.2.1-.1.1-.1.2-.1h.4l7.1 7.7v-7.2c0-.1 0-.2.1-.2.1-.1.1-.1.2-.1h1.6c.1 0 .2 0 .2.1.1.1.1.1.1.2v11.7c0 .1 0 .2-.1.2-.1.1-.1.1-.2.1h-.4l-7.2-8v7.5c0 .1 0 .2-.1.2-.1.1-.1.1-.2.1h-1.6c-.1 0-.2 0-.2-.1-.1-.1-.1-.1-.1-.2v-11.7z"/><path d="m204.1 128.1.6-1.1c0-.1.1-.1.1-.1s.1-.1.2-.1h.2c.1 0 .1 0 .2.1s1.5 1.1 2.6 1.1c.2 0 .4 0 .6-.1s.3-.2.5-.3.3-.3.4-.5.1-.4.2-.6c0-.9-.7-1.5-2.2-2.1-1.6-.7-3.2-1.7-3.2-3.8 0-1.6 1.1-3.4 3.8-3.4 1.2 0 2.4.4 3.4 1.2.1.1.1.2.2.3 0 .1 0 .2-.1.3l-.7 1c-.1.1-.1.2-.3.2-.1 0-.2 0-.3 0-.1-.1-1.4-1-2.4-1-.4 0-.7.1-1 .3s-.5.6-.5.9c0 .8.6 1.4 2 2 1.7.7 3.6 1.7 3.6 3.9 0 1.8-1.5 3.5-3.9 3.5-1.4 0-2.7-.4-3.8-1.4-.3 0-.4-.1-.2-.3z"/><path d="m223.6 117.4c.5 0 1 .1 1.5.3s.9.5 1.3.8c0 0 0 0 .1.1v.1s0 .1 0 .1 0 .1-.1.1l-.9 1s-.1.1-.1.1c-.1 0-.1 0-.1-.1-.4-.4-1-.6-1.6-.6s-1.2.3-1.7.7c-.5.5-.7 1.1-.7 1.7s.3 1.3.7 1.7c.5.5 1.1.7 1.7.7s1.1-.2 1.6-.6c0 0 .1-.1.2-.1s.1 0 .2.1l.9 1s.1.1.1.2 0 .1-.1.2c-.8.8-1.8 1.2-2.9 1.2s-2.2-.5-3-1.3-1.2-1.9-1.2-3 .4-2.2 1.2-3c.7-1 1.8-1.4 2.9-1.4z"/><path d="m233.2 117.4c.8 0 1.7.2 2.4.7s1.2 1.1 1.6 1.9c.3.8.4 1.7.2 2.5s-.6 1.6-1.2 2.2-1.3 1-2.2 1.2c-.8.2-1.7.1-2.4-.2-.8-.3-1.4-.9-1.9-1.6s-.7-1.5-.7-2.4c0-.6.1-1.1.3-1.7.2-.5.5-1 .9-1.4s.9-.7 1.4-.9 1-.3 1.6-.3zm0 6.7c.5 0 .9-.1 1.3-.4s.7-.6.9-1.1c.2-.4.2-.9.1-1.4s-.3-.9-.6-1.2-.7-.6-1.2-.7-.9 0-1.4.1c-.4.2-.8.5-1.1.9s-.4.9-.4 1.3c0 .6.3 1.2.7 1.7.5.5 1.1.8 1.7.8z"/><path d="m237.3 128.2h-17.7c-.1 0-.2.1-.2.2v1.2c0 .1.1.2.2.2h17.7c.1 0 .2-.1.2-.2v-1.2c0-.1-.1-.2-.2-.2z"/></g></svg>
